dist/img/svg/ic_file.svg

<svg width="385" height="503" viewBox="0 0 385 503" fill="none" xmlns="http://www.w3.org/2000/svg">
<path d="M31.5 1.39999C20.7 4.79999 9.50001 14.1 5.10001 23.4C-0.199992 34.3 8.35593e-06 22.4 8.35593e-06 250.7C8.35593e-06 402.9 0.300008 464.4 1.10001 468.2C3.90001 481.5 13.3 493.4 25.7 499.3L32.5 502.5H192H351.5L358.3 499.3C370.4 493.5 380.1 481.3 382.9 468.2C384.4 461 384.5 131.4 383 127.3C381.8 124.1 262 3.69999 257.8 1.39999C255.5 0.199993 238.9 -7.48783e-06 145.3 0.0999925C59.5 0.0999925 34.6 0.399993 31.5 1.39999ZM236 67.5C236 107.8 236.4 112.2 240.6 121.8C243.3 127.9 251.7 137.1 257.8 140.7C268 146.7 270.5 147 314.1 147H354V305.4V463.7L351.7 467.1C350.5 469 347.9 471.3 346 472.3C342.7 473.9 333.7 474 190.8 473.8L39.1 473.5L36.3 471.4C34.8 470.2 32.6 467.8 31.5 465.9C29.5 462.5 29.5 460.4 29.2 256C29 142.4 29.2 47.2 29.5 44.3C30.3 38 33.3 33.1 38 30.8C41.3 29.1 48.2 29 138.8 29H236V67.5ZM305.8 117.8C279.2 118 278.4 118 274.1 115.8C266.2 111.7 266 110.7 266 78.5V50.5L299.5 84L333 117.5L305.8 117.8Z" fill="white"/>
<path d="M96.9996 209.7C86.2996 215.2 86.2996 230.4 96.9996 236.2C100.4 238 104.3 238 193 237.8L285.5 237.5L288.9 235.1C297.1 229.2 297.1 216.7 288.8 210.8L285.5 208.5L193 208.2C106.4 208 100.3 208.1 96.9996 209.7Z" fill="white"/>
<path d="M96.9996 268.8C86.2996 274.6 86.2996 289.8 96.9996 295.3C100.3 296.9 106.4 297 193 296.8L285.5 296.5L288.8 294.2C297.1 288.3 297.1 275.8 288.9 269.9L285.5 267.5L193 267.2C104.3 267 100.4 267 96.9996 268.8Z" fill="white"/>
<path d="M97.3001 328C86.3001 332.9 86.1001 348.8 97.0001 354.2C100.3 355.9 106.9 356 192 356C279.2 356 283.7 355.9 287 354.1C297.7 348.5 297.7 333.7 287 328.2L282.6 326H192C104.9 326 101.3 326.1 97.3001 328Z" fill="white"/>
<path d="M96.9996 387.2C86.2996 392.6 86.2996 407.9 96.9996 413.2C100.2 414.9 105.5 415 162.3 415C230.1 415 228.6 415.1 233 409C238.3 401.5 236 391.5 228 387.3L223.7 385H162.6H101.4L96.9996 387.2Z" fill="white"/>
</svg>

<svg width="385" height="503" viewBox="0 0 385 503" fill="none" xmlns="http://www.w3.org/2000/svg"><path d="M31.5 1.4c-10.8 3.4-22 12.7-26.4 22C-.2 34.3 0 22.4 0 250.7c0 152.2.3 213.7 1.1 217.5 2.8 13.3 12.2 25.2 24.6 31.1l6.8 3.2h319l6.8-3.2c12.1-5.8 21.8-18 24.6-31.1 1.5-7.2 1.6-336.8.1-340.9-1.2-3.2-121-123.6-125.2-125.9C255.5.2 238.9 0 145.3.1 59.5.1 34.6.4 31.5 1.4zM236 67.5c0 40.3.4 44.7 4.6 54.3 2.7 6.1 11.1 15.3 17.2 18.9 10.2 6 12.7 6.3 56.3 6.3H354v316.7l-2.3 3.4c-1.2 1.9-3.8 4.2-5.7 5.2-3.3 1.6-12.3 1.7-155.2 1.5l-151.7-.3-2.8-2.1c-1.5-1.2-3.7-3.6-4.8-5.5-2-3.4-2-5.5-2.3-209.9-.2-113.6 0-208.8.3-211.7.8-6.3 3.8-11.2 8.5-13.5 3.3-1.7 10.2-1.8 100.8-1.8H236v38.5zm69.8 50.3c-26.6.2-27.4.2-31.7-2-7.9-4.1-8.1-5.1-8.1-37.3v-28L299.5 84l33.5 33.5-27.2.3z" fill="#fff"/><path d="M97 209.7c-10.7 5.5-10.7 20.7 0 26.5 3.4 1.8 7.3 1.8 96 1.6l92.5-.3 3.4-2.4c8.2-5.9 8.2-18.4-.1-24.3l-3.3-2.3-92.5-.3c-86.6-.2-92.7-.1-96 1.5zm0 59.1c-10.7 5.8-10.7 21 0 26.5 3.3 1.6 9.4 1.7 96 1.5l92.5-.3 3.3-2.3c8.3-5.9 8.3-18.4.1-24.3l-3.4-2.4-92.5-.3c-88.7-.2-92.6-.2-96 1.6zm.3 59.2c-11 4.9-11.2 20.8-.3 26.2 3.3 1.7 9.9 1.8 95 1.8 87.2 0 91.7-.1 95-1.9 10.7-5.6 10.7-20.4 0-25.9l-4.4-2.2H192c-87.1 0-90.7.1-94.7 2zm-.3 59.2c-10.7 5.4-10.7 20.7 0 26 3.2 1.7 8.5 1.8 65.3 1.8 67.8 0 66.3.1 70.7-6 5.3-7.5 3-17.5-5-21.7l-4.3-2.3H101.4l-4.4 2.2z" fill="#fff"/></svg>
